src/pos-icons/wall-sconce.svg

<svg height="24" viewBox="0 0 24 24" width="24" xmlns="http://www.w3.org/2000/svg"><path d="m11 4-4 9h12l-4-9zm-7 10v8h2v-3h8v-5h-2v3h-6v-3z"/></svg>

<?xml version="1.0" encoding="UTF-8"?><!DOCTYPE svg PUBLIC "-//W3C//DTD SVG 1.1//EN" "http://www.w3.org/Graphics/SVG/1.1/DTD/svg11.dtd"><svg xmlns="http://www.w3.org/2000/svg" xmlns:xlink="http://www.w3.org/1999/xlink" version="1.1" id="mdi-wall-sconce" width="24" height="24" viewBox="0 0 24 24"><path d="M11,4L7,13H19L15,4H11M4,14V22H6V19H14V14H12V17H6V14H4Z" /></svg>
